!!!!SEGMENT: pl-wtm--a-43-186-99--001-003_fitelberg-grzegorz--szesc-piesni-op-22-no-3-wieczor-w-milczeniu-stoimy.krn
!!!cenid: 19xx:98
!!!COM: Fitelberg, Grzegorz
!!!COM-rismID: pe41023683
!!!CDT: 1879-1953
!!!CNT: Polish
!!!GTL: Sześć pieśni Op. 22
!!!OTL: No. 3. Wieczór/W milczeniu stoimy
!!!OMV: 003
!!!PDT:
!!!AGN: Secular; Song
!!!YEC: Copyright 2022 Narodowy Instytut Fryderyka Chopina (https://polishscores.org)
!!!YEM: License CC-BY-4.0 (https://creativecommons.org/licenses/by/4.0)
!!!SMS-siglum: PL-Wtm
!!!SMS-shelfmark: A-43.186/99
!!!SMS-variant:
!!!SMS-altvar:
!!!SMS-shelfwork: 001-003 G
!!!NIFC-rismSourceID: 1001135590
!!!NIFC-rismChildID: 1001135610
!!!NIFC-islandoraID: pl-wtm:4771
!!!URL-pdf-islandora: https://repozytorium.nifc.pl/islandora/object/pl-wtm%3A4771/datastream/PDF/view
!!!URL-scan: https://polish.musicsources.pl/pl/lokalizacje/galeria/druki-muzyczne/15759/5 @EN{Scan on Polish Music Sources Website} @PL{Skany w portalu Dziedzictwo Muzyki Polskiej w otwartym dostępie}
!!!IIIF:
!!!ONB-nifc:
!!!OMD: Poco agitato
!!!AIN: 1 piano 1 vox
!!!key: none
**kern	**kern	**dynam	**kern	**text	**text	**dynam
*part2	*part2	*part2	*part1	*part1	*part1	*part1
*staff3	*staff2	*	*staff1	*staff1	*staff1	*
*ICklav	*ICklav	*	*ICvox	*	*	*
*Ipiano	*Ipiano	*	*Ivox	*	*	*
*I"Klavier.	*I"Klavier.	*	*I"Singstimme.	*	*	*
*clefF4	*clefG2	*	*clefG2	*	*	*
*k[]	*k[]	*	*k[]	*	*	*
*c#:	*c#:	*	*c#:	*	*	*
*M4/4	*M4/4	*	*M4/4	*	*	*
*Xtuplet	*	*	*	*	*	*
!	!LO:TX:a:i:t=molto espressivo	!	!	!	!	!
12r	(4f#X/	mf >	4r	.	.	.
(12BBB-X\L	.	.	.	.	.	.
N[>12BB-X\J	.	.	.	.	.	.
=1	=1	=1	=1	=1	=1	=1
*^	*	*	*^	*	*	*
*	*^	*	*	*	*	*	*	*
NN[12BB-\LN]	6BB-y/	4ryy	2.e/)	]	4r	4ryy	.	.	.
NNN[12G\	.	.	.	.	.	.	.	.	.
[12c#X\J	12ryy	.	.	.	.	.	.	.	.
!	!	!	!	!	!	!	!	!	!LO:DY:a:rj
!LO:TX:t=P:problem=mixed beam	!	!	!	!	!	!	!	!	!LO:HP:a
12c#/L]	4BB-\NN] 4GNNN] 4c#	4ryy	.	.	4g/	4ryy	Wir	W mil-	mf <
12g>\	.	.	.	.	.	.	.	.	.
[12c#/J	.	.	.	.	.	.	.	.	.
!	!	!	!	!	!	!LO:N:cue	!	!	!LO:HP:a
12c#\L]	4c#/	12ryy	.	.	2f#X/	4f#\	stehn	-cze-	[ >
12G\	.	6G/	.	.	.	.	.	.	.
12BB-\J)	.	.	.	.	.	.	.	.	.
!	!	!	!	!	!	!LO:N:cue	!	!	!
12r	4ryy	4ryy	(4g~/	>	.	8f#\	.	-niu	]
(12AAA\L	.	.	.	.	.	.	.	.	.
!	!	!	!	!	!	!LO:N:cue	!	!	!
.	.	.	.	.	.	8r	.	.	.
[12AA\J	.	.	.	.	.	.	.	.	.
=2	=2	=2	=2	=2	=2	=2	=2	=2	=2
NN[12AA\L_]	4AA/	12ryy	2.e-X/)	]	4r	4ryy	.	.	.
NN[12G\	.	6G/	.	.	.	.	.	.	.
[12cn\J	.	.	.	.	.	.	.	.	.
!LO:TX:t=P:problem=mixed beam	!	!	!	!	!	!	!	!	!LO:HP:a
12c/L]	4AA\NN] 4GNN] 4c	4ryy	.	.	4fn/	4ryy	und	sto-	<
12g>\	.	.	.	.	.	.	.	.	.
[>12c/J	.	.	.	.	.	.	.	.	.
!	!	!	!	!	!	!LO:N:cue	!	!	!LO:HP:a
12c\L]	4c/	12ryy	.	.	2e-X/	4e-\	schaun	-i-	[ >
12G\	.	6G/	.	.	.	.	.	.	.
12AA\J)	.	.	.	.	.	.	.	.	.
!	!	!	!	!	!	!LO:N:cue	!	!	!
12r	4ryy	4ryy	(4g~/	>	.	4e-\	.	-my	]
(12AAA-X\L	.	.	.	.	.	.	.	.	.
[<12AA-X\J	.	.	.	.	.	.	.	.	.
*	*v	*v	*	*	*v	*v	*	*	*
!!LO:LB:g=original
=3	=3	=3	=3	=3	=3	=3	=3
*	*	*^	*	*	*	*	*
12AA-y\L]	N[>4AA-y/	4r	(&(<2d\)	]	4r	.	.	.
NN[12F\	.	.	.	.	.	.	.	.
[12c-X\J	.	.	.	.	.	.	.	.
!	!	!LO:TX:a:i:t=espressivo	!	!	!	!	!	!LO:HP:a
12AA-\LN] 12FNN] 12c-]	12ryy	([4g/&)	.	<	4d/	und	i	<
12c-\	[>6c-/	.	.	.	.	.	.	.
[<12F\J	.	.	.	.	.	.	.	.
*	*tuplet	*	*	*	*	*	*	*
4c-/]	&&(6F\]	8g/L]	[4d-X\)	.	6g/	spre-	pa-	[
.	.	8a-X/J	.	.	.	.	.	.
.	12E-X\)	.	.	.	6a-X/	-chen	.	.
*	*Xtuplet	*Xtuplet	*	*	*	*	*	*
12E--\L	6E--X/	12b-X/L	(12d-\]	.	.	.	.	.
!	!	!	!	!	!	!	!	!LO:HP:a
NN[12AA-\	.	NN[<12c-X/	6c-\)	.	6b-X\	kein	-trzym	>
[12D-X\J	12D-/	[<12f/J	.	[[	.	.	.	.
*v	*v	*	*	*	*	*	*	*
=4	=4	=4	=4	=4	=4	=4	=4
!	!	!	!	!LO:TX:a:i:t=rit._:ext=ud	!	!	!
12AA-\LNN]&&) 12D-] 12A-X	12c-/LNN]) 12f] 12cc-X	4ryy	.	2cc-X\	Wort	w dal	]
(12GGG\	NN[<(>12Bn/	.	pp	.	.	.	.
!	!LO:TX:b:t=rit.	!	!	!	!	!	!
12GG\J	[12f/J	.	.	.	.	.	.
12Dn\L	12B/LNN] 12f] 12bn	12ryy	.	.	.	.	.
[12G\	NN[<12b/	6b\	.	.	.	.	.
12G\J_> [>12d	[<12ff/J	.	.	.	.	.	.
4G\]) 4d] 4g	4b/NN]) 4ff] 4bb	4ryy	.	4r	.	.	.
!	!	!	!	!LO:TX:a:B:t=Lento.	!	!	!LO:DY:a:rj
4r	12r	12ryy	.	4bn\	der	Wie-	p
!	!	!	!LO:DY:b:rj	!	!	!	!
!	!LO:TX:b:i:t=dolcissimo	!	!LO:HP:a	!	!	!	!
.	(12G#X/L	[6G#\	p <	.	.	.	.
.	[<12e/J	.	.	.	.	.	.
=5	=5	=5	=5	=5	=5	=5	=5
(4EEE~/ 4EE	12G#/L] 12e] 12g#X	12ryy	[	2.b\	A-	-czo-	.
!	!	!	!LO:HP:a	!	!	!	!
.	NN[<12G#X/	6G#\	<	.	.	.	.
.	[<12d#X/J	.	.	.	.	.	.
4EEE#X~/ 4EE#X	12f##X/L	4G#\NN] 4d#]	[	.	.	.	.
.	12g#/	.	.	.	.	.	.
!	!	!	!LO:HP:a	!	!	!	!
.	[<12G#/J	.	<	.	.	.	.
4BBB~/ 4BB	12dn/L	4G#\]	.	.	.	.	.
!	!LO:N:acc=n#	!	!	!	!	!	!
.	12f#X/	.	[	.	.	.	.
.	[<12g#/J	.	.	.	.	.	.
4BBB#X~/) 4BB#X	12dd/L	4g#\]	.	8a#X/	-bend	.	.
.	12ff#X/	.	.	.	.	.	.
.	.	.	.	8an/	zer	-ru	.
.	12gg#X/J)	.	.	.	.	.	.
!!LO:LB:g=original
=6	=6	=6	=6	=6	=6	=6	=6
*^	*	*^	*	*	*	*	*
12r	1EE#X~ 1C#X 1E#X	12r	1G#X~ 1c#X 1g#X	12ryy	.	2g#X/	flat-	skrzy-	.
*clefG2	*	*	*	*	*	*	*	*	*
!	!	!	!	!	!LO:DY:a:rj	!	!	!	!
(12G#X/L	.	(12a#X/L	.	6a#~<\	pp	.	.	.	.
12c#X/J	.	12cc#X/J	.	.	.	.	.	.	.
12g#X/L	.	12aa#X/L	.	12ryy	.	.	.	.	.
12c#/	.	12b/	.	6b~<\	.	.	.	.	.
12g#/J	.	12cc#/J	.	.	.	.	.	.	.
12cc#X/L	.	12bb/L	.	12ryy	.	4f#X/	-tert	-dła	.
12g#/	.	12b#X/	.	6b#~<\	.	.	.	.	.
12cc#/J	.	12ee#X/J	.	.	.	.	.	.	.
4gg#X/)	.	8bb#X/L)	.	4ryy	.	4e#X/	auf	fa-	.
.	.	([8cc#X~</J	.	.	<	.	.	.	.
*v	*v	*	*	*	*	*	*	*	*
*	*v	*v	*v	*	*	*	*	*
*clefF4	*	*	*	*	*	*
=7	=7	=7	=7	=7	=7	=7
*M5/4	*M5/4	*	*M5/4	*	*	*
*	*^	*	*	*	*	*
*	*	*^	*	*	*	*	*
4r	12cc#/L]) 12ccc#X	12ryy	4ryy	[	[2.cc#X\	dun-	-lu-	.
!	!	!	!	!LO:HP:a	!	!	!	!
.	(>12G#X/	[6G#\	.	<	.	.	.	.
.	[<12e/J	.	.	.	.	.	.	.
(4EEE~/ 4EE	12G#/L] 12e] 12g#X	4G#\	12ryy	[	.	.	.	.
!	!	!	!	!LO:HP:a	!	!	!	!
.	NN[<12G#/	.	6G#\	<	.	.	.	.
.	[<12d#X/J	.	.	.	.	.	.	.
4EEE#X~/ 4EE#X	12f##X/L	4G#\NN] 4d#]	2ryy	.	.	.	.	.
.	12g#/	.	.	[	.	.	.	.
!	!	!	!	!LO:HP:a	!	!	!	!
.	[<12G#/J	.	.	<	.	.	.	.
!	!	!	!	!	!	!	!	!LO:HP:a
4BBB~/ 4BB	12dn/L	4G#\]	.	.	4cc#\]	.	-ją	<
.	12f#X/	.	.	[	.	.	.	.
.	[<12g#/J	.	.	.	.	.	.	.
4BBB#X~/) 4BB#X	12dd/L	4g#\]	4ryy	.	4ccn\	-klen	na	.
.	12ff#X/	.	.	.	.	.	.	.
.	12gg#X/J)	.	.	.	.	.	.	[
*	*v	*v	*v	*	*	*	*	*
!!LO:LB:g=original
=8	=8	=8	=8	=8	=8	=8
*M4/4	*M4/4	*	*M4/4	*	*	*
*^	*^	*	*	*	*	*
*	*	*	*^	*	*	*	*	*
!	!	!	!	!	!	!	!	!	!LO:DY:a
4r	1CC#X 1C#X 1E#X	12r	1Bn~ 1c#X 1g#X 1bn	12ryy	.	2b\	Wie-	łą-	>
.	.	(12g#/L	.	6g#X~<\	.	.	.	.	.
.	.	12cc#X/J	.	.	.	.	.	.	.
12r	.	12gg#X/L	.	12ryy	.	.	.	.	.
(12G#X/L	.	12a#X/	.	6a#~<\	.	.	.	.	.
12c#X/J	.	12cc#/J	.	.	.	.	.	.	.
*clefG2	*	*	*	*	*	*	*	*	*
12g#X/L	.	12aa#X/L	.	12ryy	.	4c#X/	-sen	-kach.	]
12c#/	.	12b/	.	6b~<\	.	.	.	.	.
12g#/J	.	12ee#X/J	.	.	.	.	.	.	.
4cc#X/)	.	8bb/L)	.	4ryy	.	4r	.	.	.
.	.	([8an~</J	.	.	pp	.	.	.	.
=9	=9	=9	=9	=9	=9	=9	=9	=9	=9
!	!	!	!	!	!	!LO:TX:a:i:t=espressivo	!	!	!
12r	12ryy	12a~>/L]) 12aa	4ryy	2ryy	.	4b#X\	Stren-	Mro-	.
*clefF4	*	*	*	*	*	*	*	*	*
!LO:TX:a:i:t=dolcissimo	!	!	!	!	!LO:HP:a	!	!	!	!
(>[>6c#X/	12c#\L	12c#X/	.	.	<	.	.	.	.
.	[>12A\J	(12a/J	.	.	.	.	.	.	.
12C#X\L 12A] 12c#]	4ryy	12a/L) 12cc#X	12ryy	.	[	4cc#X\	-ge	-czne	.
!	!	!	!	!	!LO:HP:a	!	!	!	!
12FF#X\	.	NN[<12c#/	6c#\	.	<	.	.	.	.
[>12B#X\J	.	12g#X/J	.	.	.	.	.	.	.
4B#/]	12G#X\L	12b#X/L	4c#\NN] 4g#	4ryy	[	4dd#X\	Schat-	cie-	.
.	12C#\	12cc#/	.	.	.	.	.	.	.
!	!	!	!	!	!LO:HP:a	!	!	!	!
.	[>12Bn\J	[<12c#/J	.	.	<	.	.	.	.
4B/]	12Gn\L	12gn/L	4c#\] 4g	12ryy	.	4ee#X\	-ten	-nie	.
.	12C#\)	12bn/	.	6b\	[	.	.	.	.
.	(>12FFF#X\J	([<12cc#/J	.	.	.	.	.	.	.
*	*	*v	*v	*v	*	*	*	*	*
*clefG2	*	*	*	*	*	*	*
=10	=10	=10	=10	=10	=10	=10	=10
*^	*	*	*	*	*	*	*
2.ryy	12A#X~</L) 12c#X 12f#X 12a#X	12ryy	2.cc#\_) [2.ff#X [2.ccc#X	.	2ff#X\	kom-	wsta-	.
!	!	!	!	!LO:HP:b=2	!	!	!	!
.	(>12A#/	[<6A#\	.	<	.	.	.	.
.	[<12f#/J	.	.	.	.	.	.	.
.	12A#/L] 12f#] 12a#	12ryy	.	[	.	.	.	.
!	!	!	!	!LO:HP:b=2	!	!	!	!
.	12A#/	[<6A#\	.	<	.	.	.	.
.	[<12e#X/J	.	.	.	.	.	.	.
.	12A#/L] 12e#] 12g##X	4A#\	.	[	4cc#X\	-men	-ją	.
.	12a#/	.	.	.	.	.	.	.
!	!	!	!	!LO:HP:b=2	!	!	!	!
.	[<12A#/J	.	.	<	.	.	.	.
12ryy	12en/L	4A#\]	8cc#\L] 8ff#] 8ccc#]	.	4dd\	vom	z mo-	.
!	!LO:N:acc=n#	!	!	!	!	!	!	!
6g#\	12g#X/	.	.	[	.	.	.	.
.	.	.	([8dd-X~\J	.	.	.	.	.
.	12a#/J)	.	.	.	.	.	.	.
*v	*v	*	*	*	*	*	*	*
!!LO:PB:g=original
=11	=11	=11	=11	=11	=11	=11	=11
*	*	*^	*	*^	*	*	*
!	!	!LO:TX:a:i:t=espressivo	!	!	!	!LO:N:cue	!	!	!
12B-X~/L 12e-X 12gn 12b-X	12ryy	(2ddd-X~\)	4dd-\] 4gg	.	2ee-X\	4ee-/	Torf	-cza-	.
(12g/	[6g\	.	.	.	.	.	.	.	.
[<12ee-X/J	.	.	.	.	.	.	.	.	.
!	!	!	!	!LO:HP:t=cresc._:ext=ud	!	!LO:N:cue	!	!	!
12g/L] 12ee-] 12gg	12ryy	.	4ryy	<	.	4ee-/	.	-rów	.
12g/	[<6g\	.	.	.	.	.	.	.	.
[<12dd/J	.	.	.	.	.	.	.	.	.
!	!	!	!	!	!	!	!	!	!LO:DY:a
12ff#X/L	4g\] 4dd] 4ff#	4dddn\	2ryy	.	4.an/	2ryy	stei-	ni-	<
12gg/	.	.	.	.	.	.	.	.	.
[<12g/J	.	.	.	.	.	.	.	.	.
12dd-X/L	4g\] 4dd-	4eee-X\)	.	.	.	.	.	.	.
12ffn/	.	.	.	.	.	.	.	.	.
.	.	.	.	.	[8b-X\	.	-gen	-by	.
12gg/J)	.	.	.	[[	.	.	.	.	.
*v	*v	*	*	*	*	*	*	*	*
*clefF4	*	*	*	*	*	*	*	*
=12	=12	=12	=12	=12	=12	=12	=12	=12
*	*	*	*^	*	*	*	*	*
!	!LO:TX:t=P:problem=mixed beam	!	!LO:DY:b	!	!	!	!	!	!
(4CCC~/ 4CC	12een\L 12gg 12ccc 12eeen	12ryy	pp	.	4b-\]	2b-X/	.	nie-	.
!	!	!	!LO:HP:a	!	!	!	!	!	!
.	(12E/	[6E\	<	.	.	.	.	.	.
.	[<12c/J	.	.	.	.	.	.	.	.
!	!	!	!	!LO:HP:t=molto cresc._:ext=s:ext=ud	!	!	!	!	!
4CCC#X~/ 4CC#X	12E/L] 12c] 12e	12ryy	[	<	4b-X\	.	als	.	.
!	!	!	!LO:HP:a	!	!	!	!	!	!
.	12E/	[6E\	<	.	.	.	.	.	.
.	[<12B/J	.	.	.	.	.	.	.	.
4FFF##X~/ 4FF##X	12E/L] 12B] 12d#X	4E\	[	.	4g/	2ryy	stum-	-me	.
.	12e/	.	.	.	.	.	.	.	.
!	!	!	!LO:HP:a	!	!	!	!	!	!
.	(<12E/J	.	<	.	.	.	.	.	.
4GGG#X~/) 4GG#X	12C/L) 12A#X	4C\	.	.	4a-X/	.	-me	ol-	[
.	12dn/	.	[	.	.	.	.	.	.
.	12e/J)	.	.	[[	.	.	.	.	.
*	*	*	*v	*v	*	*	*	*	*
*	*	*	*	*v	*v	*	*	*
!!LO:LB:g=original
=13	=13	=13	=13	=13	=13	=13	=13
*^	*	*	*	*	*	*	*
!	!	!	!	!	!	!	!	!LO:DY:a
!	!	!	!	!	!	!	!	!LO:HP:a
1BBB#X 1GG#X 1BB#X	12r	1F#X 1d#X 1g#X	2ryy	sfz	2g#X/	Rie-	-brzy-	f >
.	N(>12GGG#X/L	.	.	f	.	.	.	.
.	12GG#X/J	.	.	.	.	.	.	.
!LO:TX:t=P:problem=mixed beam	!	!	!	!	!	!	!	!
.	12G#X>\L	.	.	.	.	.	.	.
.	12D#X/	.	.	.	.	.	.	.
.	12d#X>\J	.	.	>	.	.	.	.
!	!	!LO:TX:t=P:problem=mixed beam	!	!	!	!	!	!
.	4ryy	.	12dd#X\L	.	2d#X/	-sen	-my,	.
.	.	.	12d#X</	.	.	.	.	.
.	.	.	([<12ff#X\J	.	.	.	.	.
.	4ryy	.	8ff#\L])N) 8fff#X	.	.	.	.	.
.	.	.	(>[<8e~\J	] pp	.	.	.	]
=14	=14	=14	=14	=14	=14	=14	=14	=14
!	!	!	!	!	!LO:TX:a:i:t=espressivo	!	!	!LO:DY:a:rj
12r	12ryy	12e~>/L]) 12ee	4ryy	.	(4f#X/	ü-	przez	p
(12G#X\L	[>6G#/	(12G#X/	.	.	.	.	.	.
[>12E\J	.	[12e/J	.	.	.	.	.	.
12GG#X\L 12E] 12G#]	4ryy	12e/L] 12g#X	12ryy	.	4g#X/)	.	.	.
12CC#X\	.	12G#/	[6G#\	.	.	.	.	.
[12F##X\J	.	[<12d#X/J	.	.	.	.	.	.
12D#X\L	4D#/ 4F##]	12G#/L 12d#] 12f##X	4G#\]	.	4a#X/	-ber	.	.
12GG#\	.	12g#/	.	.	.	.	.	.
[12F#X\J	.	[<12G#/J	.	.	.	.	.	.
12Dn\L	4D/ 4F#]	12G#/L] 12dn	4G#\	.	4b#X\	die	za-	.
12GG#\)	.	12f#X/	.	.	.	.	.	.
(12CCC#X\J	.	[<12g#/J	.	.	.	.	.	.
*	*	*v	*v	*	*	*	*	*
!!LO:LB:g=original
=15	=15	=15	=15	=15	=15	=15	=15
*	*^	*	*	*	*	*	*
12E#X~\L) 12G#X 12c#X 12e#X	12ryy	2r	1g#]) 1cc#X 1gg#X	.	2cc#X\	Schol-	-go-	.
(12E#\	[<6E#/	.	.	<	.	.	.	.
[<12c#\J	.	.	.	.	.	.	.	.
12E#\L] 12c#] 12e#	12ryy	.	.	[	.	.	.	.
12E#\	[<6E#/	.	.	<	.	.	.	.
[<12B#X\J	.	.	.	.	.	.	.	.
12E#\L] 12B#]	4d##/	4ryy	.	[	4g#X/	-len	-ny	.
12e#\	.	.	.	.	.	.	.	.
[<12E#\J	.	.	.	<	.	.	.	.
12E#\L]	[4Bn/	12ryy	.	.	4a#X/	be-	ku	.
!LO:N:acc=n#	!	!LO:N:acc=n#	!	!	!	!	!	!
12d#\	.	6d#/	.	[	.	.	.	.
12e#\J	.	.	.	.	.	.	.	.
*v	*v	*v	*	*	*	*	*	*
=16	=16	=16	=16	=16	=16	=16
*	*^	*	*	*	*	*
!	!	!	!	!	!	!	!LO:HP:a:t=sempre dim._:ext=s:ext=ud
4En~\) 4B] 4dn 4en	12g#X~>/L 12ddn 12gg#X	12ryy	pp	2.b\	-hut-	wsi	>
.	(12G#X/	[<6G#\	.	.	.	.	.
.	[<12e/J	.	.	.	.	.	.
[2.EEE/ [2.EE	12G#/L] 12e] 12g#	12ryy	.	.	.	.	.
.	12G#/	[<6G#\	.	.	.	.	.
.	[<12d#X/J	.	.	.	.	.	.
.	12f##X/L	4G#\] 4d#]	.	.	.	.	.
.	12g#/	.	.	.	.	.	.
.	[<12G#/J	.	.	.	.	.	.
.	12dn/L	4G#\] 4d	.	4b#X\	-sam	o-	.
!	!LO:N:acc=n#	!	!	!	!	!	!
.	12f#X/	.	.	.	.	.	.
.	12g#/J	.	.	.	.	.	]]
!!LO:LB:g=original
=17	=17	=17	=17	=17	=17	=17	=17
1EEE] 1EE]	12A/L	[<4A\	.	2cc#X\	fort	-stro-	.
.	NN[<12c#X/	.	.	.	.	.	.
.	12e/J	.	.	.	.	.	.
.	12A/L] 12c#NN] 12e 12a	12ryy	.	.	.	.	.
.	12A/	[<6A\	.	.	.	.	.
.	[<12cn/J	.	.	.	.	.	.
!	!	!	!	!	!	!	!LO:HP:a
.	12A/L] 12c] 12f#X	4ryy	>	2dd#X\	ins	-żnie	>
.	12g#X/	.	.	.	.	.	.
.	12a/J	.	.	.	.	.	.
.	12a/L	4ryy	.	.	.	.	.
.	12ee/	.	.	.	.	.	.
.	12ff#X/J)	.	.	.	.	.	.
=18	=18	=18	=18	=18	=18	=18	=18
*	*	*^	*	*	*	*	*
1ryy	4r	4ryy	2ryy	.	1ee	Dorf.	mkną.	.
.	4G#X/	[2.G#\	.	] pp	.	.	.	.
.	4e/	.	[<2e\	.	.	.	.	.
.	4g#X/	.	.	.	.	.	.	.
*	*	*v	*v	*	*	*	*	*
=19	=19	=19	=19	=19	=19	=19	=19
*	*tuplet	*	*	*	*	*	*
(2EEE/ 2EE	6G#/] 6e] 6g#X	2ryy	.	1r	.	.	]
.	6G#X/	.	.	.	.	.	.
.	[<6G#/ [<6d#X	.	.	.	.	.	.
2EEE#X/ 2EE#X	6f##X/	2G#\] 2d#_<	.	.	.	.	.
.	6g#X/	.	.	.	.	.	.
.	[<6G#/	.	.	.	.	.	.
=20	=20	=20	=20	=20	=20	=20	=20
*	*	*^	*	*	*	*	*
*	*	*	*Xtuplet	*	*	*	*	*
2BBB/ 2BB	6dn/	2G#\] 2d#]	6ryy	<	1r	.	.	.
!	!LO:N:acc=n#	!	!LO:N:acc=n#	!	!	!	!	!
.	6f#X/	.	3f#\	.	.	.	.	.
.	[6g#X/	.	.	.	.	.	.	.
!	!LO:TUP:a	!	!	!	!	!	!	!
2CCn/) 2Cn	6g#\]	[>2g#/	6ryy	[ >	.	.	.	.
.	6fn\	.	3f/	.	.	.	.	.
.	6cn\	.	.	.	.	.	.	.
*	*v	*v	*v	*	*	*	*	*
=21	=21	=21	=21	=21	=21	=21
1EE;< 1BB 1E	1G#X~; 1B 1e 1g#]	]	1r;	.	.	.
==	==	==	==	==	==	==
*-	*-	*-	*-	*-	*-	*-
!!!system-decoration: s1{(s2,s3)}
!!!RDF**kern: < = below
!!!RDF**kern: > = above
!!!RDF**kern: N = linked
!!!RDF**kern: NN = linked
!!!ENC: Anastazja Marusiak
!!!END: 2023-10-06
!!!EED: Marta Chmielewska
!!!EEV: 2023-10-19
